X:1
T:When Earth’s Labors Are O’er
T:When Earth’s Labors Are O’er
T:Benjamin Kenzie Knight
T:Anthony Johnson Showalter, 1902
T:Public Domain Courtesy of the Cyber Hymnal™
T:Public Domain Courtesy of the Cyber Hymnal™
C:Benjamin Kenzie Knight
Z:Public Domain
Z:Courtesy of the Cyber Hymnal™
%%score ( 1 2 ) ( 3 4 )
L:1/8
Q:1/4=95
M:4/4
K:G
V:1 treble 
V:2 treble 
V:3 bass 
V:4 bass 
V:1
 [DG]>[DA] | [GB]2 [GB]>[FA] G2 [DG]>[DG] | [EA]2 [EG]>[CE] [B,D]2 [B,G]>[DB] | %3
w: 1.~When earth’s|la- bors are o’er, and I|rest on the shore Of that|
w: 2.~There no|sha- dows can fall, and no|death e’er ap- pall, For the|
w: 3.~I shall|join in the psalm to the|glor- i- fied Lamb, For sal-|
 [Gd]2 [Gd]>[Ge] [Gd]2 [Ac]>[GB] | [FA]6 [DG]>[DA] | [GB]2 [GB]>[FA] G2 [DG]>[DG] | %6
w: land where no storms ev- er|beat, I shall|see, face to face, Him who|
w: Lord is the light and the|life; By His|glo- ry so bright shall be|
w: va- tion so full and so|free; All my|fears will be past; I’ll be|
 [EA]2 [EA]>[EG] [CE]2 [DG]>[DA] | [DB]2 [DB]>G [FA]2 [GB]>[DA] | [DG]6 ||"^Refrain" [DB]>[Dc] | %10
w: saved me by grace, And the|saints of all ag- es shall|greet.|O the|
w: ban- ished the night, And the|peace which He gives ends all|strife.||
w: safe home at last, Ev- er-|more with the Lord there to|be.||
 d6 [Gd]>[GB] | G6 [DG]>[DA] | [DB]2 [DB]>[Dc] [Gd]2 [Ac]>[GB] | [FA]6 [GB]>[Fc] x2 | %14
w: joy I shall|know, ~ ~|~ ~ ~ ~ ~ ~|~ ~ ~|
w: ||||
w: ||||
 [Gd]2 [Gd]>[Ge] [Gd]2 [GB]>[DA] | [EG]2 [EG]>[CE] !fermata![EG]2 [DG]>[DA] | %16
w: ~ ~ ~ ~ ~ ~|~ ~ ~ ~ ~ ~|
w: ||
w: ||
 [DB]2 [DB]>G [FA]2 [GB]>[DA] | G6 |] %18
w: ~ ~ ~ ~ ~ ~|~|
w: ||
w: ||
V:2
 x2 | x4 G2 x2 | x8 | x8 | x8 | x4 G2 x2 | x8 | x7/2 G/ x4 | x6 || x2 | (G2 F>A G2) x2 | %11
 (D2 E>E D2) x2 | x8 | x10 | x8 | x8 | x7/2 G/ x4 | D2 E>F D2 |] %18
V:3
 [G,B,]>[G,C] | [G,D]2 [G,D]>[G,C] [G,B,]2 [G,B,]>[G,B,] | [C,C]2 [C,C]>[C,G,] [G,,G,]2 G,>G, | %3
w: ~ ~|~ ~ ~ ~ ~ ~|~ ~ ~ ~ ~ ~|
 [G,B,]2 [G,B,]>[G,C] [G,B,]2 [F,D]>[G,D] | [D,D]6 [G,B,]>[G,C] | %5
w: ~ ~ ~ ~ ~ ~|~ ~ ~|
 [G,D]2 [G,D]>[G,C] [G,B,]2 [G,B,]>[G,B,] | [C,C]2 [C,C]>[C,C] [C,G,]2 [B,,G,]>[D,F,] | %7
w: ~ ~ ~ ~ ~ ~|~ ~ ~ ~ ~ ~|
 G,2 G,>[G,B,] [D,C]2 [D,D]>[D,C] | [G,B,]6 || G,>[G,A,] | %10
w: ~ ~ ~ ~ ~ ~|~|O the|
 [G,B,]2 [D,A,]>[D,C] [G,B,]2 [G,B,]>[G,D] | [G,B,]2 [C,C]>[C,C] [G,,B,]2 [B,,G,]>[D,F,] | %12
w: joy I shall know, O the|joy I shall know, When the|
 G,2 G,>[G,A,] [G,B,]2 [F,D]>[G,D] | D6 (D,C,)[B,,D]>[A,,C] | %14
w: face of my Sav- ior I|see; When * He wel-|
 [G,,B,]2 [G,B,]>[G,C] [G,B,]2 [G,D]>[G,B,] | [C,C]2 [C,C]>[C,G,] !fermata![C,C]2 [B,,G,]>[D,F,] | %16
w: * comes me home ’neath His|fair pal- ace dome, O how|
 G,2 G,>[G,B,] [D,C]2 [D,D]>[D,C] | (B,2 C>C B,2) |] %18
w: sweet will His words be to|me! * * *|
V:4
 x2 | x8 | x6 G,>G, | x8 | x8 | x8 | x8 | G,2 G,3/2 x9/2 | x6 || G,3/2 x/ | x8 | x8 | %12
 G,2 G,3/2 x9/2 | D,2 D,>D, x6 | x8 | x8 | G,2 G,3/2 x9/2 | G,,6 |] %18

